honk.svg

<svg clip-rule="evenodd" fill-rule="evenodd" stroke-linejoin="round" stroke-miterlimit="2" viewBox="0 0 81 76" xmlns="http://www.w3.org/2000/svg"><g fill-rule="nonzero" transform="translate(-.09)"><g fill="#f1f1f1"><path d="m26.25 0h1.16c2.35 2.68 3.61 6.07 5.49 9.06 1.78 3.15 4.05 6.04 5.39 9.43-1.34-.48-2.55-1.28-3.21-2.58-3.25-5.12-6.57-10.26-8.83-15.91z"/><path d="m4.77 14.82c5.18-.65 8.85 4.21 13.31 6.14 3.49 2.99 8.88 4.21 10.78 8.69-4.3-.25-7.03-3.94-10.57-5.88-4.36-3.21-9.7-5.03-13.52-8.95z"/><path d="m53.28 31.69c4.96.19 10.6-.08 14.56 3.47 4.56 4.25 9.32 8.85 11.04 15.06 3.59 8.18 1.22 17.19 1.31 25.78h-18.29c-.28-4.63-1.24-9.34-3.63-13.37-2.25-3.31-5.39-5.88-8.05-8.84-1.75-1.81-3.24-3.99-5.57-5.11 2.08-6.03 5.79-11.32 8.63-16.99"/><path d="m.09 39.05c2.09-2.76 5.36-.58 8.05-.31 5.46.79 10.76 2.35 16.08 3.75-1.12.47-2.27 1.24-3.52.74-6.83-1.59-13.96-1.91-20.61-4.18z"/></g><path d="m33.72 29.26c2.7-1.57 5.79-4.84 9.14-3.12 3.49 1.82 6.78 4.02 10.42 5.55-2.84 5.67-6.55 10.96-8.63 16.99-4.62-1.66-9.55-1.66-14.37-2.08 1.7-.84 3.48-1.49 5.25-2.17 2.77.86 5.55 1.66 8.33 2.49-1.46-1.8-2.92-3.61-4.06-5.63-2.06-3.99-4.29-7.91-6.08-12.03z" fill="#fe8b33"/></g><ellipse cx="57.935" cy="39.4" rx="3.955" ry="3.609" transform="matrix(.539963 0 0 .601172 25.7786 16.6117)"/><path d="m35.53 44.43c1.46-1 2.84-2.1 4.27-3.14 1.14 2.02 2.6 3.83 4.06 5.63-2.78-.83-5.56-1.63-8.33-2.49z" fill="#dd3103" fill-rule="nonzero" transform="translate(-.09)"/></svg>

<svg xmlns="http://www.w3.org/2000/svg" fill-rule="evenodd" stroke-linejoin="round" stroke-miterlimit="2" clip-rule="evenodd" viewBox="0 0 81 76"><path fill="#f1f1f1" fill-rule="nonzero" d="M26.25,0L27.41,0C29.76,2.68 31.02,6.07 32.9,9.06C34.68,12.21 36.95,15.1 38.29,18.49C36.95,18.01 35.74,17.21 35.08,15.91C31.83,10.79 28.51,5.65 26.25,0Z" transform="matrix(1,0,0,1,-0.09,0)"/><path fill="#f1f1f1" fill-rule="nonzero" d="M4.77,14.82C9.95,14.17 13.62,19.03 18.08,20.96C21.57,23.95 26.96,25.17 28.86,29.65C24.56,29.4 21.83,25.71 18.29,23.77C13.93,20.56 8.59,18.74 4.77,14.82Z" transform="matrix(1,0,0,1,-0.09,0)"/><path fill="#f1f1f1" fill-rule="nonzero" d="M53.28,31.69C58.24,31.88 63.88,31.61 67.84,35.16C72.4,39.41 77.16,44.01 78.88,50.22C82.47,58.4 80.1,67.41 80.19,76L61.9,76C61.62,71.37 60.66,66.66 58.27,62.63C56.02,59.32 52.88,56.75 50.22,53.79C48.47,51.98 46.98,49.8 44.65,48.68C46.73,42.65 50.44,37.36 53.28,31.69" transform="matrix(1,0,0,1,-0.09,0)"/><path fill="#f1f1f1" fill-rule="nonzero" d="M0.09,39.05C2.18,36.29 5.45,38.47 8.14,38.74C13.6,39.53 18.9,41.09 24.22,42.49C23.1,42.96 21.95,43.73 20.7,43.23C13.87,41.64 6.74,41.32 0.09,39.05Z" transform="matrix(1,0,0,1,-0.09,0)"/><path fill="#fe8b33" fill-rule="nonzero" d="M33.72,29.26C36.42,27.69 39.51,24.42 42.86,26.14C46.35,27.96 49.64,30.16 53.28,31.69C50.44,37.36 46.73,42.65 44.65,48.68C40.03,47.02 35.1,47.02 30.28,46.6C31.98,45.76 33.76,45.11 35.53,44.43C38.3,45.29 41.08,46.09 43.86,46.92C42.4,45.12 40.94,43.31 39.8,41.29C37.74,37.3 35.51,33.38 33.72,29.26Z" transform="matrix(1,0,0,1,-0.09,0)"/><ellipse cx="57.935" cy="39.4" rx="3.955" ry="3.609" transform="matrix(1,0,0,1,-0.09,0) matrix(0.539963,0,0,0.601172,25.8686,16.6117)"/><path fill="#dd3103" fill-rule="nonzero" d="M35.53,44.43C36.99,43.43 38.37,42.33 39.8,41.29C40.94,43.31 42.4,45.12 43.86,46.92C41.08,46.09 38.3,45.29 35.53,44.43Z" transform="matrix(1,0,0,1,-0.09,0)"/></svg>
